swiss/communes/0250.svg

<?xml version="1.0" encoding="UTF-8" standalone="no"?>
<!-- Created with Inkscape (http://www.inkscape.org/) -->
<svg
   xmlns:svg="http://www.w3.org/2000/svg"
   xmlns="http://www.w3.org/2000/svg"
   version="1.0"
   width="224.50624"
   height="262.97409"
   id="svg2780">
  <defs
     id="defs2782" />
  <g
     transform="translate(-10.255265,-803.52438)"
     id="layer1">
    <path
       d="M 11.255265,804.52438 L 15.300829,974.46096 C 18.19051,1095.8443 226.82626,1095.8443 229.71595,974.46096 L 233.76151,804.52438 L 11.255265,804.52438 z "
       style="fill:#ffffff;fill-opacity:1;fill-rule:evenodd;stroke:#000000;stroke-width:2;stroke-linecap:butt;stroke-miterlimit:4;stroke-dashoffset:0;stroke-opacity:1"
       id="path3282" />
    <path
       d="M 172.71218,905.59602 C 178.21893,909.98337 179.86328,916.48881 190.22919,918.25969 C 190.01563,916.5564 188.80532,914.85312 188.21798,913.89739 C 193.36521,916.89822 197.1419,918.40393 202.91209,919.78504 C 202.10407,918.00164 200.54848,916.59204 199.61586,915.4316 C 203.71299,917.35923 210.49225,918.10141 215.33695,917.41258 C 214.25663,916.28238 213.17631,915.15218 212.096,914.27117 C 216.39071,914.29968 220.43624,913.95439 224.60636,913.48452 C 223.50466,912.22973 222.40296,910.97493 220.92749,909.96932 C 224.11337,909.35348 226.75814,907.89054 229.57025,906.27794 C 222.78256,890.30702 207.05435,875.85629 180.17314,886.732 C 179.47525,881.06848 184.3747,881.44511 190.92148,878.45049 C 197.8543,875.27929 241.22115,848.94481 206.77969,824.70878 C 225.93457,853.42885 174.78712,861.01872 125.45663,862.19086 C 76.280396,863.35934 24.399307,853.26213 39.116916,827.17561 C 7.4947012,847.71139 50.332939,873.86967 56.384744,877.56948 C 62.526991,881.32459 66.949967,881.42088 66.252074,887.0844 C 39.370871,874.62287 24.326084,889.57198 19.124213,908.00973 C 22.060918,908.75017 24.374655,909.4906 27.31136,909.10969 C 25.586694,909.74151 24.360403,910.49794 23.258707,911.75273 C 27.428829,912.2226 31.474356,913.19086 35.769072,913.16235 C 34.065783,913.79417 32.2379,914.42599 30.659205,915.80538 C 35.005529,916.61881 39.476447,916.80925 43.698177,915.62918 C 42.267181,916.91421 41.334561,918.07463 40.526535,919.85803 C 46.296729,918.47692 51.94233,917.22039 57.089554,914.21956 C 56.502213,915.17529 55.416496,917.00317 55.202936,918.70646 C 61.332661,916.93558 67.088603,915.04011 72.595358,910.65276"
       style="color:#000000;fill:#000000;fill-opacity:1;fill-rule:evenodd;stroke:#ffffff;stroke-width:0.99921262;stroke-linecap:butt;stroke-linejoin:miter;marker:none;marker-start:none;marker-mid:none;marker-end:none;stroke-miterlimit:4;stroke-dasharray:none;stroke-dashoffset:0;stroke-opacity:1;visibility:visible;display:inline;overflow:visible;enable-background:accumulate"
       id="path5082" />
    <path
       d="M 216.99819,897.30413 C 203.43061,888.31781 184.70911,897.26009 176.29545,897.30414 C 184.0924,919.19728 174.75368,940.0332 168.01394,949.10762 C 166.73648,956.94862 158.56264,983.51293 156.30427,987.33163 C 153.98531,991.25279 158.24177,1002.1836 150.13567,1015.2602 C 142.54278,1027.5089 143.82628,1032.3997 125.90663,1032.2235 C 107.86239,1032.0461 104.30292,1026.633 97.144274,1013.5763 C 89.747728,1000.0857 95.330896,989.40526 92.015181,984.98573 C 89.35272,981.43693 83.542576,961.35368 83.3437,953.51268 C 72.198903,942.85244 62.86018,917.08285 70.480931,897.65654 C 57.486009,897.9649 48.279437,889.90363 34.359453,895.1897"
       style="fill:#000000;fill-opacity:1;fill-rule:evenodd;stroke:#ffffff;stroke-width:0.99921262;stroke-linecap:round;stroke-linejoin:miter;stroke-miterlimit:4;stroke-dasharray:none;stroke-opacity:1"
       id="path4104" />
    <path
       d="M 100.43532,943.82155 C 102.02114,950.69344 102.90216,969.8995 94.444446,980.82404 C 86.783663,990.71922 83.3437,1005.6686 90.215591,1012.5405 C 97.087481,1019.4123 102.37355,1022.0554 112.76949,1019.2361 C 123.16543,1016.4169 129.33251,1018.0027 137.26161,1019.0599 C 145.19072,1020.1172 150.65298,1021.5268 156.99627,1014.4787 C 163.76552,1006.9573 164.57297,994.92022 155.41045,983.11467 C 147.07292,972.37209 147.48134,948.05041 148.89097,944.35016"
       style="opacity:1;color:#000000;fill:#000000;fill-opacity:1;fill-rule:evenodd;stroke:#ffffff;stroke-width:1px;stroke-linecap:round;stroke-linejoin:miter;marker:none;marker-start:none;marker-mid:none;marker-end:none;stroke-miterlimit:4;stroke-dasharray:none;stroke-dashoffset:0;stroke-opacity:1;visibility:visible;display:inline;overflow:visible;enable-background:accumulate"
       id="path5080" />
    <path
       d="M 113.87879,845.038 C 119.5769,840.25825 127.59068,840.97842 134.26874,845.66097 C 141.81895,842.49411 147.92805,846.24048 150.34135,849.52338 C 157.48715,848.49096 159.73164,848.28974 164.79425,852.26445 C 171.1935,853.59151 177.36567,854.9133 175.13554,865.84517 C 177.29196,869.93307 177.68302,873.54681 174.88634,876.31106 C 176.85881,880.59357 176.8421,883.16276 174.26338,886.40316 C 174.30793,890.31068 172.01766,895.16269 167.53531,895.74771 C 166.83494,899.23169 162.78799,902.92888 156.69564,901.22983 C 153.78472,905.24301 149.00467,906.4601 144.61004,904.59386 C 141.62956,908.39998 136.67066,908.81592 133.64577,907.70871 C 132.44136,909.66068 129.89303,912.65326 128.03905,912.94166 C 126.17014,913.23238 124.71655,914.81056 123.76228,916.43028 C 122.80801,914.81056 121.97739,913.60616 120.10848,913.31544 C 118.2545,913.02704 116.07995,910.90662 115.12473,909.45302 C 111.60146,909.93726 107.63931,909.52132 103.78668,906.71196 C 99.516638,907.33226 96.231723,906.48895 93.320801,902.47577 C 86.979263,902.4305 83.306099,899.1071 81.733572,895.8723 C 77.25122,895.28728 74.587166,892.55337 73.759565,887.6491 C 70.125152,885.23534 70.249248,880.62912 70.520124,875.93728 C 66.959162,873.02017 68.216457,869.38033 71.267688,865.47139 C 69.698035,856.3008 76.888079,855.15994 82.97951,853.01201 C 86.224413,848.35566 91.166985,846.22021 99.052118,847.52988 C 103.08294,845.17128 106.93474,842.21752 113.87879,845.038 z "
       style="color:#000000;fill:#000000;fill-opacity:1;fill-rule:evenodd;stroke:#ffffff;stroke-width:0.99921262;stroke-linecap:butt;stroke-linejoin:miter;marker:none;marker-start:none;marker-mid:none;marker-end:none;stroke-miterlimit:4;stroke-dasharray:none;stroke-dashoffset:0;stroke-opacity:1;visibility:visible;display:inline;overflow:visible;enable-background:accumulate"
       id="path5107" />
    <path
       d="M 84.929521,908.22868 C 82.805508,910.79012 85.264721,913.56955 87.748776,913.98763 C 90.250267,914.40866 103.98182,922.84327 103.10859,931.33256"
       style="opacity:1;color:#000000;fill:none;fill-opacity:0.75;fill-rule:evenodd;stroke:#ffffff;stroke-width:1px;stroke-linecap:round;stroke-linejoin:miter;marker:none;marker-start:none;marker-mid:none;marker-end:none;stroke-miterlimit:4;stroke-dasharray:none;stroke-dashoffset:0;stroke-opacity:1;visibility:visible;display:inline;overflow:visible;enable-background:accumulate"
       id="path5114" />
    <path
       d="M 163.01778,908.97624 C 165.14179,911.53768 163.80392,914.44171 161.56906,915.35816 C 159.22713,916.31852 150.69354,922.59408 147.57977,930.4604"
       style="opacity:1;color:#000000;fill:none;fill-opacity:0.75;fill-rule:evenodd;stroke:#ffffff;stroke-width:1px;stroke-linecap:round;stroke-linejoin:miter;marker:none;marker-start:none;marker-mid:none;marker-end:none;stroke-miterlimit:4;stroke-dasharray:none;stroke-dashoffset:0;stroke-opacity:1;visibility:visible;display:inline;overflow:visible;enable-background:accumulate"
       id="path5116" />
    <path
       d="M 102.16696,988.94391 C 118.61335,988.32094 116.05077,991.56038 124.34467,991.56038 C 132.76312,991.56038 133.44003,987.82256 145.77482,988.07175"
       style="opacity:1;color:#000000;fill:none;fill-opacity:0.75;fill-rule:evenodd;stroke:#ffffff;stroke-width:1px;stroke-linecap:round;stroke-linejoin:miter;marker:none;marker-start:none;marker-mid:none;marker-end:none;stroke-miterlimit:4;stroke-dasharray:none;stroke-dashoffset:0;stroke-opacity:1;visibility:visible;display:inline;overflow:visible;enable-background:accumulate"
       id="path5118" />
    <path
       d="M 117.99038,985.82906 C 121.35441,987.69797 128.83005,987.075 131.19733,985.57987"
       style="opacity:1;color:#000000;fill:none;fill-opacity:0.75;fill-rule:evenodd;stroke:#ffffff;stroke-width:1px;stroke-linecap:round;stroke-linejoin:miter;marker:none;marker-start:none;marker-mid:none;marker-end:none;stroke-miterlimit:4;stroke-dasharray:none;stroke-dashoffset:0;stroke-opacity:1;visibility:visible;display:inline;overflow:visible;enable-background:accumulate"
       id="path5120" />
    <path
       d="M 146.27319,997.79007 C 134.34681,1005.1757 150.55381,1016.2951 151.00776,1004.3935"
       style="opacity:1;color:#000000;fill:none;fill-opacity:0.75;fill-rule:evenodd;stroke:#ffffff;stroke-width:1px;stroke-linecap:round;stroke-linejoin:miter;marker:none;marker-start:none;marker-mid:none;marker-end:none;stroke-miterlimit:4;stroke-dasharray:none;stroke-dashoffset:0;stroke-opacity:1;visibility:visible;display:inline;overflow:visible;enable-background:accumulate"
       id="path5122" />
    <path
       d="M 100.16263,997.79007 C 115.95142,1004.3035 96.878761,1018.4132 94.929685,1006.0132"
       style="opacity:1;color:#000000;fill:none;fill-opacity:0.75;fill-rule:evenodd;stroke:#ffffff;stroke-width:1px;stroke-linecap:round;stroke-linejoin:miter;marker:none;marker-start:none;marker-mid:none;marker-end:none;stroke-miterlimit:4;stroke-dasharray:none;stroke-dashoffset:0;stroke-opacity:1;visibility:visible;display:inline;overflow:visible;enable-background:accumulate"
       id="path5124" />
    <path
       d="M 86.139705,918.37843 C 79.958886,926.87802 90.979451,932.09437 96.076982,924.19786 C 96.93425,922.86987 94.94902,921.00672 94.457261,921.97028 C 91.26108,928.23295 84.355775,924.1657 87.52902,919.52375 C 89.234508,917.02889 87.100249,917.05753 86.139705,918.37843 z "
       style="fill:#ffffff;fill-opacity:1;fill-rule:evenodd;stroke:none;stroke-width:1px;stroke-linecap:butt;stroke-linejoin:miter;stroke-opacity:1"
       id="path5126" />
    <path
       d="M 163.35189,920.49286 C 169.53271,928.99245 158.51214,934.2088 153.41461,926.31229 C 152.55734,924.9843 154.54257,923.12115 155.03433,924.08471 C 158.23051,930.34738 165.13582,926.28013 161.96257,921.63818 C 160.25708,919.14332 162.39134,919.17196 163.35189,920.49286 z "
       style="fill:#ffffff;fill-opacity:1;fill-rule:evenodd;stroke:none;stroke-width:1px;stroke-linecap:butt;stroke-linejoin:miter;stroke-opacity:1"
       id="path11915" />
  </g>
</svg>

<svg xmlns="http://www.w3.org/2000/svg" version="1.0" width="224.506" height="262.974"><path d="m11.255 804.524 4.046 169.937c2.89 121.383 211.525 121.383 214.415 0l4.046-169.937H11.255z" style="fill:#fff;fill-opacity:1;fill-rule:evenodd;stroke:#000;stroke-width:2;stroke-linecap:butt;stroke-miterlimit:4;stroke-dashoffset:0;stroke-opacity:1" transform="translate(-10.255 -803.524)"/><path d="M172.712 905.596c5.507 4.387 7.151 10.893 17.517 12.664-.213-1.704-1.424-3.407-2.011-4.363 5.147 3.001 8.924 4.507 14.694 5.888-.808-1.783-2.364-3.193-3.296-4.353 4.097 1.927 10.876 2.67 15.72 1.98-1.08-1.13-2.16-2.26-3.24-3.14 4.295.028 8.34-.318 12.51-.787-1.101-1.255-2.203-2.51-3.679-3.516 3.186-.616 5.831-2.078 8.643-3.691-6.787-15.971-22.516-30.422-49.397-19.546-.698-5.664 4.202-5.287 10.748-8.282 6.933-3.17 50.3-29.505 15.859-53.741 19.155 28.72-31.993 36.31-81.323 37.482-49.177 1.168-101.058-8.929-86.34-35.015-31.622 20.535 11.216 46.694 17.268 50.393 6.142 3.756 10.565 3.852 9.867 9.515-26.881-12.461-41.926 2.488-47.128 20.926 2.937.74 5.25 1.48 8.187 1.1-1.724.632-2.95 1.388-4.052 2.643 4.17.47 8.215 1.438 12.51 1.41-1.703.631-3.531 1.263-5.11 2.642 4.347.814 8.817 1.004 13.04-.176-1.432 1.285-2.364 2.446-3.172 4.229 5.77-1.381 11.415-2.638 16.563-5.638-.588.955-1.674 2.783-1.887 4.486 6.13-1.77 11.886-3.666 17.392-8.053" style="color:#000;fill:#000;fill-opacity:1;fill-rule:evenodd;stroke:#fff;stroke-width:.99921262;stroke-linecap:butt;stroke-linejoin:miter;marker:none;marker-start:none;marker-mid:none;marker-end:none;stroke-miterlimit:4;stroke-dasharray:none;stroke-dashoffset:0;stroke-opacity:1;visibility:visible;display:inline;overflow:visible;enable-background:accumulate" transform="translate(-10.255 -803.524)"/><path d="M216.998 897.304c-13.567-8.986-32.289-.044-40.703 0 7.797 21.893-1.541 42.73-8.281 51.804-1.278 7.84-9.451 34.405-11.71 38.224-2.319 3.92 1.938 14.852-6.168 27.928-7.593 12.249-6.31 17.14-24.23 16.964-18.044-.178-21.603-5.591-28.762-18.648-7.396-13.49-1.813-24.17-5.129-28.59-2.662-3.55-8.472-23.632-8.671-31.473-11.145-10.66-20.484-36.43-12.863-55.856-12.995.308-22.202-7.753-36.122-2.467" style="fill:#000;fill-opacity:1;fill-rule:evenodd;stroke:#fff;stroke-width:.99921262;stroke-linecap:round;stroke-linejoin:miter;stroke-miterlimit:4;stroke-dasharray:none;stroke-opacity:1" transform="translate(-10.255 -803.524)"/><path d="M100.435 943.822c1.586 6.871 2.467 26.077-5.99 37.002-7.661 9.895-11.101 24.845-4.23 31.716 6.872 6.872 12.159 9.515 22.554 6.696 10.396-2.82 16.564-1.233 24.493-.176 7.929 1.057 13.391 2.467 19.734-4.581 6.77-7.522 7.577-19.559-1.586-31.364-8.337-10.743-7.929-35.065-6.519-38.765" style="opacity:1;color:#000;fill:#000;fill-opacity:1;fill-rule:evenodd;stroke:#fff;stroke-width:1px;stroke-linecap:round;stroke-linejoin:miter;marker:none;marker-start:none;marker-mid:none;marker-end:none;stroke-miterlimit:4;stroke-dasharray:none;stroke-dashoffset:0;stroke-opacity:1;visibility:visible;display:inline;overflow:visible;enable-background:accumulate" transform="translate(-10.255 -803.524)"/><path d="M113.879 845.038c5.698-4.78 13.712-4.06 20.39.623 7.55-3.167 13.66.58 16.072 3.862 7.146-1.032 9.39-1.233 14.453 2.741 6.4 1.328 12.572 2.65 10.342 13.581 2.156 4.088 2.547 7.702-.25 10.466 1.973 4.283 1.956 6.852-.623 10.092.045 3.908-2.245 8.76-6.728 9.345-.7 3.484-4.747 7.18-10.84 5.482-2.91 4.013-7.69 5.23-12.085 3.364-2.98 3.806-7.94 4.222-10.964 3.115-1.205 1.952-3.753 4.944-5.607 5.233-1.869.29-3.322 1.869-4.277 3.488-.954-1.62-1.785-2.824-3.654-3.115-1.854-.288-4.028-2.408-4.983-3.862-3.524.484-7.486.068-11.338-2.741-4.27.62-7.555-.223-10.466-4.236-6.342-.045-10.015-3.369-11.587-6.604-4.483-.585-7.147-3.319-7.974-8.223-3.635-2.414-3.51-7.02-3.24-11.712-3.56-2.917-2.304-6.557.748-10.466-1.57-9.17 5.62-10.311 11.712-12.459 3.244-4.656 8.187-6.792 16.072-5.482 4.03-2.359 7.883-5.312 14.827-2.492z" style="color:#000;fill:#000;fill-opacity:1;fill-rule:evenodd;stroke:#fff;stroke-width:.99921262;stroke-linecap:butt;stroke-linejoin:miter;marker:none;marker-start:none;marker-mid:none;marker-end:none;stroke-miterlimit:4;stroke-dasharray:none;stroke-dashoffset:0;stroke-opacity:1;visibility:visible;display:inline;overflow:visible;enable-background:accumulate" transform="translate(-10.255 -803.524)"/><path d="M84.93 908.229c-2.124 2.561.335 5.34 2.819 5.759 2.501.42 16.233 8.855 15.36 17.345" style="opacity:1;color:#000;fill:none;fill-opacity:.75;fill-rule:evenodd;stroke:#fff;stroke-width:1px;stroke-linecap:round;stroke-linejoin:miter;marker:none;marker-start:none;marker-mid:none;marker-end:none;stroke-miterlimit:4;stroke-dasharray:none;stroke-dashoffset:0;stroke-opacity:1;visibility:visible;display:inline;overflow:visible;enable-background:accumulate" transform="translate(-10.255 -803.524)"/><path d="M163.018 908.976c2.124 2.562.786 5.466-1.449 6.382-2.342.96-10.875 7.236-13.99 15.102" style="opacity:1;color:#000;fill:none;fill-opacity:.75;fill-rule:evenodd;stroke:#fff;stroke-width:1px;stroke-linecap:round;stroke-linejoin:miter;marker:none;marker-start:none;marker-mid:none;marker-end:none;stroke-miterlimit:4;stroke-dasharray:none;stroke-dashoffset:0;stroke-opacity:1;visibility:visible;display:inline;overflow:visible;enable-background:accumulate" transform="translate(-10.255 -803.524)"/><path d="M102.167 988.944c16.446-.623 13.884 2.616 22.178 2.616 8.418 0 9.095-3.737 21.43-3.488" style="opacity:1;color:#000;fill:none;fill-opacity:.75;fill-rule:evenodd;stroke:#fff;stroke-width:1px;stroke-linecap:round;stroke-linejoin:miter;marker:none;marker-start:none;marker-mid:none;marker-end:none;stroke-miterlimit:4;stroke-dasharray:none;stroke-dashoffset:0;stroke-opacity:1;visibility:visible;display:inline;overflow:visible;enable-background:accumulate" transform="translate(-10.255 -803.524)"/><path d="M117.99 985.83c3.364 1.868 10.84 1.245 13.207-.25" style="opacity:1;color:#000;fill:none;fill-opacity:.75;fill-rule:evenodd;stroke:#fff;stroke-width:1px;stroke-linecap:round;stroke-linejoin:miter;marker:none;marker-start:none;marker-mid:none;marker-end:none;stroke-miterlimit:4;stroke-dasharray:none;stroke-dashoffset:0;stroke-opacity:1;visibility:visible;display:inline;overflow:visible;enable-background:accumulate" transform="translate(-10.255 -803.524)"/><path d="M146.273 997.79c-11.926 7.386 4.28 18.505 4.735 6.604" style="opacity:1;color:#000;fill:none;fill-opacity:.75;fill-rule:evenodd;stroke:#fff;stroke-width:1px;stroke-linecap:round;stroke-linejoin:miter;marker:none;marker-start:none;marker-mid:none;marker-end:none;stroke-miterlimit:4;stroke-dasharray:none;stroke-dashoffset:0;stroke-opacity:1;visibility:visible;display:inline;overflow:visible;enable-background:accumulate" transform="translate(-10.255 -803.524)"/><path d="M100.163 997.79c15.788 6.514-3.284 20.623-5.233 8.223" style="opacity:1;color:#000;fill:none;fill-opacity:.75;fill-rule:evenodd;stroke:#fff;stroke-width:1px;stroke-linecap:round;stroke-linejoin:miter;marker:none;marker-start:none;marker-mid:none;marker-end:none;stroke-miterlimit:4;stroke-dasharray:none;stroke-dashoffset:0;stroke-opacity:1;visibility:visible;display:inline;overflow:visible;enable-background:accumulate" transform="translate(-10.255 -803.524)"/><path d="M86.14 918.378c-6.181 8.5 4.84 13.716 9.937 5.82.857-1.328-1.128-3.191-1.62-2.228-3.196 6.263-10.101 2.196-6.928-2.446 1.706-2.495-.429-2.466-1.39-1.146zM163.352 920.493c6.18 8.5-4.84 13.716-9.937 5.82-.858-1.329 1.128-3.192 1.62-2.228 3.196 6.262 10.1 2.195 6.928-2.447-1.706-2.495.428-2.466 1.389-1.145z" style="fill:#fff;fill-opacity:1;fill-rule:evenodd;stroke:none;stroke-width:1px;stroke-linecap:butt;stroke-linejoin:miter;stroke-opacity:1" transform="translate(-10.255 -803.524)"/></svg>
